X: 171
T: Nuo en ji ya
%%abc-version 2.0
%%abcx-abcm2ps-target-version 5.9.1 (29 Sep 2008)
%%abc-creator hum2abc beta
%%abcx-conversion-date 2013/10/02 07:44:27
%%abc-edited-by Helmut Schaffrath
%%humdrum-veritas 400356460
%%humdrum-veritas-data 1963338629
%%continueall 1
%%barnumbers 0
L: 1/8
M: 4/4
K: C
A2d c A> GE2 [I:setbarnb 1]| 
d ge6 | 
d> e a g e> d c A | 
c ed6 | 
c> de2e gA2 | 
G Ac6 | 
G> A d c A GE2 | 
G cA6 | 
A2d c A> GE2 | 
d ge6 | 
d> e a g e> d c A | 
c ed6 | 
c> de2e gA2 | 
G Ac6 | 
G> A d c A GE2 | 
G cA6 |]  



